apps/scalable/google-inbox.svg

<svg height="48" width="48" xmlns="http://www.w3.org/2000/svg" xmlns:xlink="http://www.w3.org/1999/xlink"><linearGradient id="a" gradientUnits="userSpaceOnUse" x1="399.57144" x2="399.57144" y1="545.79797" y2="517.79797"><stop offset="0" stop-color="#06f"/><stop offset="1" stop-color="#59f"/></linearGradient><linearGradient id="b" gradientUnits="userSpaceOnUse" x1="399.9939" x2="399.9939" y1="545.13873" y2="518.13873"><stop offset="0" stop-color="#0bac83"/><stop offset="1" stop-color="#10da96"/></linearGradient><linearGradient id="c" gradientUnits="userSpaceOnUse" x1="23.313869" x2="23.576643" xlink:href="#a" y1="42.148563" y2="11.550023"/><linearGradient id="d" gradientUnits="userSpaceOnUse" x1="28.321167" x2="28.905109" xlink:href="#a" y1="42.670598" y2="18.320233"/><linearGradient id="e" gradientTransform="matrix(-1.000006 0 0 1.000006 48.000278 2.67036)" gradientUnits="userSpaceOnUse" x1="28.321167" x2="28.905109" y1="40" y2="15.649635"><stop offset="0" stop-color="#2a7fff"/><stop offset="1" stop-color="#5df"/></linearGradient><linearGradient id="f" gradientTransform="matrix(1.069692 0 0 1.2711864 -1.828771 2.083787)" gradientUnits="userSpaceOnUse" x1="23.532846" x2="23.357664" y1="29.89781" y2="2.277372"><stop offset="0" stop-color="#f2f2f2"/><stop offset="1" stop-color="#f9f9f9"/></linearGradient><path d="m4.7304687 5.9333832v6.4511718h-1.1035157c-.9009217 0-1.6269531.726032-1.6269531 1.626953v1.275391 26.257812c0 .112616.011611.222072.033203.328125.043109.212753.1270432.408691.2441407.582032.058615.0869.1253121.166464.1992187.240234.073198.07306.1522101.141166.2382813.199219.086891.05862.1794952.10726.2773437.148437.097344.04104.1986343.07411.3046875.0957.1066453.0218.2168085.03125.3300781.03125h.904297 39.8417971c.450461 0 .856268-.180974 1.150391-.474609.07391-.07377.140603-.15333.199218-.240234.175002-.259461.277344-.572308.277344-.910154v-26.257812-1.275391c0-.900921-.726031-1.626953-1.626953-1.626953h-1.103516v-6.4511718z" fill-opacity=".666667" stroke-width=".428482"/><path d="m3.6262125 11.28114h40.7475755c.900921 0 1.626212.725291 1.626212 1.626213v27.533517c0 .900922-.725291 1.626212-1.626212 1.626212h-40.7475755c-.9009217 0-1.6262125-.72529-1.6262125-1.626212v-27.533517c0-.900922.7252908-1.626213 1.6262125-1.626213z" fill="url(#c)" stroke-width=".428482"/><path d="m4.7299252 4.8302917h38.5401498v35.0364953h-38.5401498z" fill="url(#f)"/><g transform="matrix(.43478355 0 0 .43478355 26.792794 7.699433)"><path d="m414.57134 531.79791a13.999958 13.999958 0 0 1 -13.99996 13.99996 13.999958 13.999958 0 0 1 -13.99996-13.99996 13.999958 13.999958 0 0 1 13.99996-13.99996 13.999958 13.999958 0 0 1 13.99996 13.99996z" fill="url(#b)" stroke-width="1.3" transform="matrix(1.6428585 0 0 1.6428585 -664.50551 -843.88775)"/><path d="m6.8708947 23.546143-2.456704-2.456704c-.337021-.337243-.746767-.505753-1.228352-.505753-.481807 0-.891553.16851-1.228574.505753l-11.850273 11.868454-5.3109597-5.329141c-.337243-.337243-.746767-.505753-1.228352-.505753-.481807 0-.891332.16851-1.228574.505753l-2.456705 2.456704c-.337243.337243-.505753.746767-.505753 1.228574 0 .481585.16851.891331.505753 1.228352l6.539313 6.539313 2.456926 2.456704c.337021.337243.746546.505753 1.2283517.505753.481585 0 .89111-.168732 1.228353-.505753l2.456926-2.456704 13.078624-13.078626c.337021-.337242.505753-.746767.505753-1.228574.000222-.481585-.168732-.891109-.505753-1.228352z" fill="#fff" fill-opacity=".850806" stroke-width=".221724"/></g><g fill-rule="evenodd"><path d="m46 14.18427-41.4687499 27.882812h39.8417969c.900922 0 1.626953-.724078 1.626953-1.625z" fill="url(#d)" stroke-width=".57295"/><path d="m2.0000001 14.184102 41.4689999 27.88298h-39.8420369c-.900928 0-1.626963-.724081-1.626963-1.625009z" fill="url(#e)" stroke-width=".572953"/></g></svg>

<?xml version="1.0" encoding="UTF-8" standalone="no"?>
<svg
   xmlns:dc="http://purl.org/dc/elements/1.1/"
   xmlns:cc="http://creativecommons.org/ns#"
   xmlns:rdf="http://www.w3.org/1999/02/22-rdf-syntax-ns#"
   xmlns:svg="http://www.w3.org/2000/svg"
   xmlns="http://www.w3.org/2000/svg"
   xmlns:xlink="http://www.w3.org/1999/xlink"
   xmlns:sodipodi="http://sodipodi.sourceforge.net/DTD/sodipodi-0.dtd"
   xmlns:inkscape="http://www.inkscape.org/namespaces/inkscape"
   height="48"
   width="48"
   version="1.1"
   id="svg33"
   sodipodi:docname="google-inbox.svg"
   inkscape:version="0.92.2 (5c3e80d, 2017-08-06)">
  <metadata
     id="metadata39">
    <rdf:RDF>
      <cc:Work
         rdf:about="">
        <dc:format>image/svg+xml</dc:format>
        <dc:type
           rdf:resource="http://purl.org/dc/dcmitype/StillImage" />
        <dc:title></dc:title>
      </cc:Work>
    </rdf:RDF>
  </metadata>
  <defs
     id="defs37">
    <linearGradient
       id="linearGradient942"
       inkscape:collect="always">
      <stop
         id="stop938"
         offset="0"
         style="stop-color:#f2f2f2;stop-opacity:1" />
      <stop
         id="stop940"
         offset="1"
         style="stop-color:#f9f9f9;stop-opacity:1" />
    </linearGradient>
    <linearGradient
       y2="517.79797"
       y1="545.79797"
       x2="399.57144"
       x1="399.57144"
       gradientUnits="userSpaceOnUse"
       id="linearGradient927">
      <stop
         id="stop923"
         stop-color="#3889e9"
         offset="0"
         style="stop-color:#0066ff;stop-opacity:1" />
      <stop
         id="stop925"
         stop-color="#5ea5fb"
         offset="1"
         style="stop-color:#5599ff;stop-opacity:1" />
    </linearGradient>
    <linearGradient
       inkscape:collect="always"
       id="linearGradient911">
      <stop
         style="stop-color:#2a7fff;stop-opacity:1"
         offset="0"
         id="stop907" />
      <stop
         style="stop-color:#55ddff;stop-opacity:1"
         offset="1"
         id="stop909" />
    </linearGradient>
    <linearGradient
       id="b-3"
       gradientUnits="userSpaceOnUse"
       x1="399.9939"
       x2="399.9939"
       y1="545.13873"
       y2="518.13873">
      <stop
         offset="0"
         stop-color="#0bac83"
         id="stop7" />
      <stop
         offset="1"
         stop-color="#10da96"
         id="stop9" />
    </linearGradient>
    <linearGradient
       id="a-6"
       gradientUnits="userSpaceOnUse"
       x1="399.57144"
       x2="399.57144"
       y1="545.79797"
       y2="517.79797">
      <stop
         offset="0"
         stop-color="#3889e9"
         id="stop2-7" />
      <stop
         offset="1"
         stop-color="#5ea5fb"
         id="stop4-5" />
    </linearGradient>
    <linearGradient
       inkscape:collect="always"
       xlink:href="#linearGradient927"
       id="linearGradient886"
       x1="23.313869"
       y1="39.478855"
       x2="23.576643"
       y2="8.8803148"
       gradientUnits="userSpaceOnUse"
       gradientTransform="translate(-1.1920929e-7,2.669708)" />
    <linearGradient
       inkscape:collect="always"
       xlink:href="#linearGradient927"
       id="linearGradient913"
       x1="28.321167"
       y1="40"
       x2="28.905109"
       y2="15.649635"
       gradientUnits="userSpaceOnUse"
       gradientTransform="translate(1.1920929e-7,2.6705982)" />
    <linearGradient
       inkscape:collect="always"
       xlink:href="#linearGradient911"
       id="linearGradient933"
       gradientUnits="userSpaceOnUse"
       x1="28.321167"
       y1="40"
       x2="28.905109"
       y2="15.649635"
       gradientTransform="matrix(-1.000006,0,0,1.000006,48.000278,2.6703597)" />
    <linearGradient
       inkscape:collect="always"
       xlink:href="#linearGradient942"
       id="linearGradient936"
       x1="23.532846"
       y1="29.89781"
       x2="23.357664"
       y2="2.2773724"
       gradientUnits="userSpaceOnUse"
       gradientTransform="matrix(1.069692,0,0,1.2711864,-1.8287708,2.0837869)" />
  </defs>
  <sodipodi:namedview
     pagecolor="#ffffff"
     bordercolor="#666666"
     borderopacity="1"
     objecttolerance="10"
     gridtolerance="10"
     guidetolerance="10"
     inkscape:pageopacity="0"
     inkscape:pageshadow="2"
     inkscape:window-width="640"
     inkscape:window-height="480"
     id="namedview35"
     showgrid="false"
     inkscape:zoom="17.125"
     inkscape:cx="25.402304"
     inkscape:cy="25.456154"
     inkscape:current-layer="svg33" />
  <linearGradient
     gradientUnits="userSpaceOnUse"
     x1="0"
     x2="47"
     y1="23.5"
     y2="23.5"
     id="linearGradient8">
    <stop
       offset="0"
       stop-color="#a9a3d4"
       id="stop2" />
    <stop
       offset=".47001833"
       stop-color="#87baff"
       id="stop4" />
    <stop
       offset="1"
       stop-color="#89ec85"
       id="stop6" />
  </linearGradient>
  <linearGradient
     id="a"
     gradientUnits="userSpaceOnUse"
     x1="-154.97885"
     x2="-157.57214"
     y1="1226.1821"
     y2="1136.2811"
     gradientTransform="matrix(0.32524249,0,0,0.32524249,74.054269,-359.62004)"
     xlink:href="#a-6">
    <stop
       offset="0"
       stop-color="#e52823"
       id="stop10" />
    <stop
       offset="1"
       stop-color="#e9352b"
       id="stop12" />
  </linearGradient>
  <linearGradient
     id="b"
     gradientTransform="matrix(0.31375718,0,0,0.32415834,116.598,-358.82171)"
     gradientUnits="userSpaceOnUse"
     x1="-292.6893"
     x2="-293.4805"
     y1="1171.113"
     y2="1135.239"
     xlink:href="#a-6">
    <stop
       offset="0"
       stop-color="#dfe3ea"
       id="stop15" />
    <stop
       offset="1"
       stop-color="#fdfeff"
       id="stop17" />
  </linearGradient>
  <linearGradient
     id="c"
     gradientTransform="matrix(0.4425193,0,0,0.44048925,155.64661,-499.43288)"
     gradientUnits="userSpaceOnUse"
     x1="-292.89081"
     x2="-292.61288"
     y1="1226.7684"
     y2="1181.605">
    <stop
       offset="0"
       stop-color="#d7dbe1"
       id="stop20" />
    <stop
       offset="1"
       stop-color="#eaedf1"
       id="stop22" />
  </linearGradient>
  <path
     style="fill:#000000;fill-opacity:0.66666667;stroke-width:0.42848161"
     d="M 4.7304687,5.9333832 V 12.384555 H 3.626953 c -0.9009217,0 -1.6269531,0.726032 -1.6269531,1.626953 v 1.275391 26.257812 c 0,0.112616 0.011611,0.222072 0.033203,0.328125 0.043109,0.212753 0.1270432,0.408691 0.2441407,0.582032 0.058615,0.0869 0.1253121,0.166464 0.1992187,0.240234 0.073198,0.07306 0.1522101,0.141166 0.2382813,0.199219 0.086891,0.05862 0.1794952,0.10726 0.2773437,0.148437 0.097344,0.04104 0.1986343,0.07411 0.3046875,0.0957 0.1066453,0.0218 0.2168085,0.03125 0.3300781,0.03125 h 0.904297 39.8417971 c 0.450461,0 0.856268,-0.180974 1.150391,-0.474609 0.07391,-0.07377 0.140603,-0.15333 0.199218,-0.240234 C 45.897658,42.195404 46,41.882557 46,41.544711 V 15.286899 14.011508 c 0,-0.900921 -0.726031,-1.626953 -1.626953,-1.626953 H 43.269531 V 5.9333832 Z"
     id="rect1095"
     inkscape:connector-curvature="0" />
  <path
     style="fill:url(#linearGradient886);fill-opacity:1;stroke-width:0.42848161"
     d="M 3.6262125,11.28114 H 44.373788 C 45.274709,11.28114 46,12.006431 46,12.907353 V 40.44087 c 0,0.900922 -0.725291,1.626212 -1.626212,1.626212 H 3.6262125 C 2.7252908,42.067082 2,41.341792 2,40.44087 V 12.907353 C 2,12.006431 2.7252908,11.28114 3.6262125,11.28114 Z"
     id="rect25" />
  <path
     style="opacity:1;fill:url(#linearGradient936);fill-opacity:1;stroke:none;stroke-width:5.01848936;stroke-miterlimit:4;stroke-dasharray:none"
     d="M 4.7299252,4.8302917 H 43.270075 V 39.866787 H 4.7299252 Z"
     id="rect929" />
  <g
     id="g878"
     transform="matrix(0.43478355,0,0,0.43478355,26.792794,7.6994333)">
    <path
       transform="matrix(1.6428585,0,0,1.6428585,-664.50551,-843.88775)"
       style="fill:url(#b-3);stroke-width:1.29999995"
       d="m 414.57134,531.79791 a 13.999958,13.999958 0 0 1 -13.99996,13.99996 13.999958,13.999958 0 0 1 -13.99996,-13.99996 13.999958,13.999958 0 0 1 13.99996,-13.99996 13.999958,13.999958 0 0 1 13.99996,13.99996 z"
       id="circle12" />
    <path
       id="path20"
       d="m 6.8708947,23.546143 -2.456704,-2.456704 c -0.337021,-0.337243 -0.746767,-0.505753 -1.228352,-0.505753 -0.481807,0 -0.891553,0.16851 -1.228574,0.505753 l -11.850273,11.868454 -5.3109597,-5.329141 c -0.337243,-0.337243 -0.746767,-0.505753 -1.228352,-0.505753 -0.481807,0 -0.891332,0.16851 -1.228574,0.505753 l -2.456705,2.456704 c -0.337243,0.337243 -0.505753,0.746767 -0.505753,1.228574 0,0.481585 0.16851,0.891331 0.505753,1.228352 l 6.539313,6.539313 2.456926,2.456704 c 0.337021,0.337243 0.746546,0.505753 1.2283517,0.505753 0.481585,0 0.89111,-0.168732 1.228353,-0.505753 l 2.456926,-2.456704 13.078624,-13.078626 c 0.337021,-0.337242 0.505753,-0.746767 0.505753,-1.228574 2.22e-4,-0.481585 -0.168732,-0.891109 -0.505753,-1.228352 z"
       style="fill:#ffffff;fill-opacity:0.85080602;stroke-width:0.22172423"
       inkscape:connector-curvature="0" />
  </g>
  <path
     style="fill:url(#linearGradient913);fill-opacity:1;fill-rule:evenodd;stroke-width:0.57294965"
     d="M 46,14.18427 4.5312501,42.067082 H 44.373047 c 0.900922,0 1.626953,-0.724078 1.626953,-1.625 z"
     id="path29"
     inkscape:connector-curvature="0" />
  <path
     id="path931"
     d="M 2.0000001,14.184102 43.469,42.067082 H 3.6269631 c -0.900928,0 -1.626963,-0.724081 -1.626963,-1.625009 z"
     style="fill:url(#linearGradient933);fill-opacity:1;fill-rule:evenodd;stroke-width:0.5729531"
     inkscape:connector-curvature="0" />
</svg>
